X:41
T:Rakesh
R:reel
C:Paul Cranford
O:Cape Breton Island
S:http://www.cranfordpub.com
D:The Lighthouse, Paul Cranford, 1996
B:The Lighthouse Collection, Paul Stewart Cranford
Z:psc, (re-formatted,updated 9/20/04)
N:Composed for Rakesh Jain, Halifax
H:                                                    copyrights Cranford Publications, SOCAN
L:1/8
Q:333
M:C|
K:D
FG|A2 GE FDDF|ABdF A2 FG|A2 GE FAdf|ecdF E2 FG|
A2 GE FDDF|ABdF A2 FG|ABdf ecdf|ecdF E2||
||FG|ABdf efdf|aefd edBd|ABdf efde|dABF E2 FG|
ABdf efdf|aefd edBb|aefd edBe|dABF E2|]
